X: 116
T: Ships Are Sailing
T: Reel, E Dorian
L: 1/16
M: C|
K: E Dorian
|: B2e2e2d2 B2c2d2B2| A2D2 (3F2E2D2 A2D2 (3F2E2D2| E2D2E2F2 G2F2G2A2| [1 B2e2e2f2 g2f2e2d2:| [2 B2e2e2d2 e4e2f2|] 
|: g2f2g2a2 b2g2e2g2| f2e2f2g2 a2f2d2f2| [1 g2f2g2a2 b2g2e2g2| f2e2d2f2 e4e2f2:| [2 g4g2e2 f4f2d2| e2d2e2f2 g2f2e2d2|] 
D: Kinnon and Betty Beaton, Saturday Night Lively, KB20M98
